outputs/icons/communication/to_do_round.svg

<svg xmlns="http://www.w3.org/2000/svg" width="1200" height="1200" fill="none"><path stroke="#1D1E23" stroke-width="75" d="M300 137.5h384.475L962.5 415.527V1000c0 17.475-5.8 31.485-18.41 44.09-12.605 12.61-26.615 18.41-44.09 18.41H300c-15.286 0-27.94-4.42-39.307-13.965l-4.785-4.445c-12.606-12.605-18.408-26.615-18.408-44.09V200c0-15.286 4.418-27.94 13.965-39.306l4.443-4.786C268.515 143.302 282.524 137.5 300 137.5Zm-37.5 900h675v-625h-250v-250h-425zm514.455-420.02L547.46 846.925 423.047 722.51l18.213-18.215 104.98 104.98 26.515-26.51L757.47 598z"/></svg>

<svg width="1200" height="1200" viewBox="0 0 1200 1200" fill="none" xmlns="http://www.w3.org/2000/svg"><path d="M300 137.5H684.475L962.5 415.527V1000C962.5 1017.475 956.7 1031.485 944.09 1044.09C931.485 1056.7 917.475 1062.5 900 1062.5H300C284.714 1062.5 272.06 1058.08 260.693 1048.535L255.908 1044.09C243.302 1031.485 237.5 1017.475 237.5 1000V200C237.5 184.714 241.918 172.06 251.465 160.694L255.908 155.908C268.515 143.302 282.524 137.5 300 137.5ZM262.5 1037.5H937.5V412.5H687.5V162.5H262.5V1037.5ZM776.955 617.48L547.46 846.925L423.047 722.51L441.26 704.295L546.24 809.275L572.755 782.765L757.47 598L776.955 617.48Z" stroke="#1D1E23" stroke-width="75"/></svg>
